X:623
T:Miss Dundas of Arniston
R:Reel
C:Nathaniel Gow
B:The Athole Collection
M:C|
L:1/8
K:D
A|F<D A>F E<=C C>E|FDAD BDAD|dDAF E=CCE|DdAF D2D:|
g|fdad e=cce|fdad bdad|fdad e=cce|fdec d2dg|fdad e=cce|fdge afbg|
adfa g=ceg|f/g/a ef d2d||

